!!!COM: Haydn, Franz Joseph 
!!!OPR: Symphony in C Major 
!!!OTL: Andante 
!!!OMV: 2 
!!!SCT: H I:2 
!!!SCA: Thematisch-bibliographisches Werkevererzeichnis (A. van Hoboken) 
!!!YOR: Breitkopf & Härtel Edition 
!!!EED: Frances Bennion 
!!!ENC: Frances Bennion 
!!!CDT: 1732/3/31/-1809/5/31/
!!!OCY: Österreich 
!!!YEC: Copyright (c) 1994, 2000 Center for Computer Assisted Research in the Humanities 
!!!YEM: Rights to all derivative editions reserved. 
!!!YEM: Refer to licensing agreement for further details. 
!!!YEN: United States of America 
**kern	**kern	**kern	**kern
*k[f#]	*k[f#]	*k[f#]	*k[f#]
*G:	*G:	*G:	*G:
*clefF	*clefF	*clefC3	*clefF4
*M2/4	*M2/4	*M2/4	*M2/4
*tb16	*tb16	*tb16	*tb16
=0-	=0-	=0-	=0-
4..r	4..r	4.r	4.r
.	.	8r	8r
16d	16d	.	.
=1	=1	=1	=1
16g	16g	4g	4G
16f#	16f#	.	.
16g	16g	.	.
16b	16b	.	.
16dd	16dd	8b	8B
16b	16b	.	.
16gg	16gg	8cc	8c
16ee	16ee	.	.
=2	=2	=2	=2
16dd	16dd	4b	4B
16b	16b	.	.
16a	16a	.	.
16g	16g	.	.
16f#	16f#	8r	8r
16g	16g	.	.
16d	16d	8b	8B
16g	16g	.	.
=3	=3	=3	=3
16e	16e	8cc	8c
16d	16d	.	.
16e	16e	8c	8C
16f#	16f#	.	.
16g	16g	8B	8BB
16b	16b	.	.
16dd	16dd	8b	8B
16gg	16gg	.	.
=4	=4	=4	=4
16cc	16cc	8a	8A
16b	16b	.	.
16cc	16cc	8d	8D
16a	16a	.	.
16b	16b	8g	8G
16g	16g	.	.
16d	16d	8b	8B
16g	16g	.	.
=5	=5	=5	=5
16e	16e	8cc	8c
16d	16d	.	.
16e	16e	8r	8r
16f#	16f#	.	.
16g	16g	8b	8B
16a	16a	.	.
16b	16b	8g	8G
16d	16d	.	.
=6	=6	=6	=6
16e	16e	8cc	8c
16d	16d	.	.
16e	16e	8r	8r
16f#	16f#	.	.
16g	16g	8b	8B
16b	16b	.	.
16d	16d	8B	8BB
16g	16g	.	.
=7	=7	=7	=7
16e	16e	8c	8C
16a	16a	.	.
16f#	16f#	8d	8D
16b	16b	.	.
16g	16g	8e	8E
16cc	16cc	.	.
16a	16a	8f#	8F#
16dd	16dd	.	.
=8	=8	=8	=8
16b	16b	4g	4G
16a	16a	.	.
16b	16b	.	.
16g	16g	.	.
16bb	16bb	8r	8r
16gg	16gg	.	.
16ee	16ee	8g	8G
16dd	16dd	.	.
=9	=9	=9	=9
16cc#	16cc#	4a	4A
16b	16b	.	.
16cc#	16cc#	.	.
16a	16a	.	.
16ddd	16ddd	8r	8r
16aa	16aa	.	.
16gg	16gg	8d	8D
16ff#	16ff#	.	.
=10	=10	=10	=10
16ee	16ee	4g	4G
16dd#	16dd#	.	.
16ee	16ee	.	.
16bb	16bb	.	.
16aa	16aa	8r	8r
16ff#	16ff#	.	.
16gg	16gg	8a	8A
16ee	16ee	.	.
=11	=11	=11	=11
16ff#	16ff#	8dd	8d
16ee	16ee	.	.
16ff#	16ff#	8d	8D
16aa	16aa	.	.
16bb	16bb	8g	8G
16gg	16gg	.	.
16ee	16ee	8g#	8G#
16dd	16dd	.	.
=12	=12	=12	=12
16cc#	16cc#	4a	4A
16b	16b	.	.
16cc#	16cc#	.	.
16a	16a	.	.
16aa	16aa	8r	8r
16ff#	16ff#	.	.
16dd	16dd	8f#	8F#
16cc#	16cc#	.	.
=13	=13	=13	=13
16b	16b	8g	8G
16a	16a	.	.
16b	16b	8G	8GG
16g	16g	.	.
16gg	16gg	8r	8r
16ee	16ee	.	.
16cc#	16cc#	8e	8E
16g	16g	.	.
=14	=14	=14	=14
16a	16a	8f#	8F#
16cc#	16cc#	.	.
16dd	16dd	4d	4D
16f#	16f#	.	.
16g	16g	.	.
16e	16e	.	.
16A	16A	8c#	8C#
16g	16g	.	.
=15	=15	=15	=15
16f#	16f#	8d	8D
16a	16a	.	.
16c#	16c#	8a	8A
16e	16e	.	.
16d	16d	8f#	8F#
16f#	16f#	.	.
16e	16e	8c#	8C#
16g	16g	.	.
=16	=16	=16	=16
16f#	16f#	4d	4D
16e	16e	.	.
16f#	16f#	.	.
16a	16a	.	.
16g	16g	8r	8r
16f#	16f#	.	.
16e	16e	8g	8G
16d	16d	.	.
=17	=17	=17	=17
16c#	16c#	4a	4A
16B	16B	.	.
16A	16A	.	.
16a	16a	.	.
16aa	16aa	8r	8r
16gg#	16gg#	.	.
16aa	16aa	8cc#	8c#
16ee	16ee	.	.
=18	=18	=18	=18
16ff	16ff	8dd	8d
16ee	16ee	.	.
16ff	16ff	8d	8D
16aa	16aa	.	.
16gg	16gg	8b-	8B-
16ff	16ff	.	.
16ee	16ee	8g	8G
16dd	16dd	.	.
=19	=19	=19	=19
16cc#	16cc#	4a	4A
16b	16b	.	.
16cc#	16cc#	.	.
16a	16a	.	.
16b-	16b-	8r	8r
16a	16a	.	.
16b-	16b-	8g	8G
16cc#	16cc#	.	.
=20	=20	=20	=20
16dd	16dd	4f	4F
16cc#	16cc#	.	.
16dd	16dd	.	.
16ee	16ee	.	.
16ff	16ff	8r	8r
16ee	16ee	.	.
16ff	16ff	8B-	8BB-
16gg#	16gg#	.	.
=21	=21	=21	=21
16aa	16aa	4A	4AA
16ee	16ee	.	.
16cc#	16cc#	.	.
16a	16a	.	.
16gg	16gg	8r	8r
16ff#	16ff#	.	.
16gg	16gg	8cc#	8c#
16ee	16ee	.	.
=22	=22	=22	=22
16ff#	16ff#	8dd	8d
16gg	16gg	.	.
16aa	16aa	8a	8A
16cc#	16cc#	.	.
16dd	16dd	8b	8B
16ee	16ee	.	.
16ff#	16ff#	8f#	8F#
16a	16a	.	.
=23	=23	=23	=23
16b	16b	4g	4G
16a	16a	.	.
16b	16b	.	.
16ee	16ee	.	.
16gg	16gg	8r	8r
16ff#	16ff#	.	.
16ee	16ee	8g#	8G#
16dd	16dd	.	.
=24	=24	=24	=24
16cc#	16cc#	4a	4A
16b	16b	.	.
16cc#	16cc#	.	.
16a	16a	.	.
16dd	16dd	8f#	8F#
16a	16a	.	.
16g	16g	8d	8D
16f#	16f#	.	.
=25	=25	=25	=25
16e	16e	4g	4G
16d	16d	.	.
16e	16e	.	.
16b	16b	.	.
16a	16a	8r	8r
16g	16g	.	.
16f#	16f#	8a	8A
16e	16e	.	.
=26	=26	=26	=26
16f#	16f#	4dd	4d
16e	16e	.	.
16f#	16f#	.	.
16g	16g	.	.
16a	16a	8r	8r
16f#	16f#	.	.
16e	16e	8f#	8F#
16d	16d	.	.
=27	=27	=27	=27
16e	16e	8g	8G
16d	16d	.	.
16e	16e	8G	8GG
16g	16g	.	.
16f#	16f#	8A	8AA
16e	16e	.	.
16f#	16f#	8a	8A
16a	16a	.	.
=28	=28	=28	=28
16g	16g	8b	8B
16f#	16f#	.	.
16g	16g	8B	8BB
16b	16b	.	.
16a	16a	8c#	8C#
16g	16g	.	.
16f#	16f#	8cc#	8c#
16e	16e	.	.
=29	=29	=29	=29
16f#	16f#	8dd	8d
16dd	16dd	.	.
16d	16d	8b	8B
16g	16g	.	.
16f#	16f#	8a	8A
16d	16d	.	.
16A	16A	8A	8AA
16c#	16c#	.	.
=30	=30	=30	=30
16d	16d	4d	4D
16c#	16c#	.	.
16d	16d	.	.
16dd	16dd	.	.
16dd	16dd	8r	8r
16b	16b	.	.
16cc	16cc	8d	8D
16a	16a	.	.
=31	=31	=31	=31
16b	16b	4g	4G
16a	16a	.	.
16b	16b	.	.
16g	16g	.	.
16gg	16gg	8r	8r
16ee	16ee	.	.
16ff	16ff	8g	8G
16dd	16dd	.	.
=32	=32	=32	=32
16cc	16cc	4a	4A
16b	16b	.	.
16cc	16cc	.	.
16ee	16ee	.	.
16dd	16dd	4b	4B
16b	16b	.	.
16g	16g	.	.
16f	16f	.	.
=33	=33	=33	=33
16e	16e	8cc	8c
16d	16d	.	.
16c	16c	8e	8E
16gg	16gg	.	.
16ff	16ff	8a	8A
16ee	16ee	.	.
16dd	16dd	8f	8F
16cc	16cc	.	.
=34	=34	=34	=34
16b	16b	4g	4G
16a	16a	.	.
16g	16g	.	.
16g	16g	.	.
16a	16a	8r	8r
16cc	16cc	.	.
16b	16b	8f	8F
16dd	16dd	.	.
=35	=35	=35	=35
16cc	16cc	8e	8E
16b	16b	.	.
16cc	16cc	4cc	4c
16gg	16gg	.	.
16ff	16ff	.	.
16ddd	16ddd	.	.
16dd	16dd	8b	8B
16ff	16ff	.	.
=36	=36	=36	=36
16ee	16ee	4cc	4c
16dd	16dd	.	.
16ee	16ee	.	.
16gg	16gg	.	.
16ff	16ff	8r	8r
16ddd	16ddd	.	.
16dd	16dd	8g	8G
16ff	16ff	.	.
=37	=37	=37	=37
16ee	16ee	4cc	4c
16dd	16dd	.	.
16ee	16ee	.	.
16gg	16gg	.	.
16dd	16dd	8b	8B
16gg	16gg	.	.
16b	16b	8g	8G
16dd	16dd	.	.
=38	=38	=38	=38
16cc	16cc	4a	4A
16b	16b	.	.
16cc	16cc	.	.
16ee	16ee	.	.
16cc	16cc	8r	8r
16aa	16aa	.	.
16a	16a	8f#	8F#
16cc	16cc	.	.
=39	=39	=39	=39
16b	16b	4g	4G
16a	16a	.	.
16b	16b	.	.
16gg	16gg	.	.
16ee	16ee	8cc	8c
16gg	16gg	.	.
16dd	16dd	8b	8B
16gg	16gg	.	.
=40	=40	=40	=40
16cc	16cc	8a	8A
16gg	16gg	.	.
16b	16b	8g	8G
16gg	16gg	.	.
16cc	16cc	8f#	8F#
16aa	16aa	.	.
16b	16b	8g	8G
16gg	16gg	.	.
=41	=41	=41	=41
16a	16a	4d	4D
16dd	16dd	.	.
16d	16d	.	.
16e-	16e-	.	.
16d	16d	8r	8r
16c	16c	.	.
16B-	16B-	8d	8D
16A	16A	.	.
=42	=42	=42	=42
16B-	16B-	4g	4G
16A	16A	.	.
16B-	16B-	.	.
16e-	16e-	.	.
16d	16d	8r	8r
16c	16c	.	.
16B-	16B-	8d	8D
16A	16A	.	.
=43	=43	=43	=43
16B-	16B-	4G	4GG
16A	16A	.	.
16B-	16B-	.	.
16e-	16e-	.	.
16d	16d	8r	8r
16c	16c	.	.
16B-	16B-	8d	8D
16A	16A	.	.
=44	=44	=44	=44
16G	16G	4e-	4E-
16B-	16B-	.	.
16e-	16e-	.	.
16c	16c	.	.
16A	16A	4f	4F
16g	16g	.	.
16f	16f	.	.
16e-	16e-	.	.
=45	=45	=45	=45
16d	16d	8b-	8B-
16c	16c	.	.
16B-	16B-	8r	8r
16f	16f	.	.
16d	16d	8b-	8B-
16f	16f	.	.
16c	16c	8a-	8A-
16f	16f	.	.
=46	=46	=46	=46
16B	16B	4g	4G
16A	16A	.	.
16G	16G	.	.
16a-	16a-	.	.
16g	16g	8r	8r
16f	16f	.	.
16e-	16e-	8b	8B
16d	16d	.	.
=47	=47	=47	=47
16e-	16e-	8cc	8c
16d	16d	.	.
16c	16c	8r	8r
16g	16g	.	.
16e-	16e-	8cc	8c
16g	16g	.	.
16d	16d	8b-	8B-
16g	16g	.	.
=48	=48	=48	=48
16c#	16c#	4a	4A
16B	16B	.	.
16A	16A	.	.
16b-	16b-	.	.
16a	16a	8r	8r
16g	16g	.	.
16f#	16f#	8a	8A
16e	16e	.	.
=49	=49	=49	=49
16f#	16f#	4dd	4d
16e	16e	.	.
16d	16d	.	.
16ee-	16ee-	.	.
16dd	16dd	8r	8r
16cc	16cc	.	.
16b-	16b-	8d	8D
16a	16a	.	.
=50	=50	=50	=50
16b-	16b-	8g	8G
16dd	16dd	.	.
16a	16a	8f	8F
16dd	16dd	.	.
16g	16g	8e-	8E-
16b-	16b-	.	.
16a	16a	8cc#	8c#
16g	16g	.	.
=51	=51	=51	=51
16f#	16f#	8.dd	8.d
16e	16e	.	.
16d	16d	.	.
16dd	16dd	16b-	16B-
16cc	16cc	16a	16A
16b-	16b-	16g	16G
16a	16a	16f#	16F#
16g	16g	16e	16E
=52	=52	=52	=52
16f#	16f#	8.d	8.D
16e	16e	.	.
16d	16d	.	.
16dd	16dd	16b-	16B-
16cc	16cc	16a	16A
16b-	16b-	16g	16G
16a	16a	16f#	16F#
16g	16g	16e	16E
=53	=53	=53	=53
16f#	16f#	8.d	8.D
16e	16e	.	.
16d	16d	.	.
16e	16e	16e	16E
16d	16d	16d	16D
16c	16c	16c	16C
16B	16B	16B	16BB
16d	16d	16A	16AA
=54	=54	=54	=54
16g	16g	4G	4GG
16f#	16f#	.	.
16g	16g	.	.
16b	16b	.	.
16dd	16dd	8r	8r
16b	16b	.	.
16gg	16gg	8cc	8c
16ee	16ee	.	.
=55	=55	=55	=55
16dd	16dd	4b	4B
16b	16b	.	.
16a	16a	.	.
16g	16g	.	.
16f#	16f#	8r	8r
16g	16g	.	.
16d	16d	8b	8B
16g	16g	.	.
=56	=56	=56	=56
16e	16e	8cc	8c
16d	16d	.	.
16e	16e	8c	8C
16f#	16f#	.	.
16g	16g	8B	8BB
16b	16b	.	.
16dd	16dd	8b	8B
16gg	16gg	.	.
=57	=57	=57	=57
16cc	16cc	8a	8A
16b	16b	.	.
16cc	16cc	8d	8D
16a	16a	.	.
16b	16b	8g	8G
16g	16g	.	.
16d	16d	8b	8B
16g	16g	.	.
=58	=58	=58	=58
16e	16e	8cc	8c
16d	16d	.	.
16e	16e	8r	8r
16f#	16f#	.	.
16g	16g	8b	8B
16a	16a	.	.
16b	16b	8g	8G
16d	16d	.	.
=59	=59	=59	=59
16e	16e	8cc	8c
16d	16d	.	.
16e	16e	8r	8r
16f#	16f#	.	.
16g	16g	8b	8B
16b	16b	.	.
16d	16d	8B	8BB
16g	16g	.	.
=60	=60	=60	=60
16e	16e	8c	8C
16a	16a	.	.
16f#	16f#	8d	8D
16b	16b	.	.
16g	16g	8e	8E
16cc	16cc	.	.
16a	16a	8f#	8F#
16dd	16dd	.	.
=61	=61	=61	=61
16b	16b	4g	4G
16a	16a	.	.
16b	16b	.	.
16g	16g	.	.
16bb	16bb	8r	8r
16gg	16gg	.	.
16ee	16ee	8g	8G
16dd	16dd	.	.
=62	=62	=62	=62
16cc	16cc	4a	4A
16b	16b	.	.
16cc	16cc	.	.
16a	16a	.	.
16aa	16aa	8r	8r
16ff#	16ff#	.	.
16dd	16dd	8f#	8F#
16cc	16cc	.	.
=63	=63	=63	=63
16b	16b	8g	8G
16dd	16dd	.	.
16f#	16f#	8dd	8d
16a	16a	.	.
16g	16g	8b	8B
16b	16b	.	.
16a	16a	8f#	8F#
16cc	16cc	.	.
=64	=64	=64	=64
16b	16b	4g	4G
16a	16a	.	.
16b	16b	.	.
16dd	16dd	.	.
16cc	16cc	8r	8r
16b	16b	.	.
16a	16a	8c	8C
16g	16g	.	.
=65	=65	=65	=65
16f#	16f#	4d	4D
16e	16e	.	.
16d	16d	.	.
16dd	16dd	.	.
16ddd	16ddd	8r	8r
16ccc#	16ccc#	.	.
16ddd	16ddd	8f#	8F#
16aa	16aa	.	.
=66	=66	=66	=66
16bb-	16bb-	4g	4G
16aa	16aa	.	.
16bb-	16bb-	.	.
16ddd	16ddd	.	.
16ccc	16ccc	8e-	8E-
16bb-	16bb-	.	.
16aa	16aa	8c	8C
16gg	16gg	.	.
=67	=67	=67	=67
16ff#	16ff#	4d	4D
16ee	16ee	.	.
16ff#	16ff#	.	.
16dd	16dd	.	.
16ee-	16ee-	8r	8r
16dd	16dd	.	.
16ee-	16ee-	8cc	8c
16ff#	16ff#	.	.
=68	=68	=68	=68
16gg	16gg	4b-	4B-
16ff#	16ff#	.	.
16gg	16gg	.	.
16aa	16aa	.	.
16bb-	16bb-	8r	8r
16ff#	16ff#	.	.
16gg	16gg	8e-	8E-
16cc#	16cc#	.	.
=69	=69	=69	=69
16dd	16dd	4d	4D
16a	16a	.	.
16f#	16f#	.	.
16d	16d	.	.
16dd	16dd	8r	8r
16ff#	16ff#	.	.
16aa	16aa	8f#	8F#
16ccc	16ccc	.	.
=70	=70	=70	=70
16bb	16bb	8g	8G
16ccc	16ccc	.	.
16ddd	16ddd	8d	8D
16ff#	16ff#	.	.
16gg	16gg	8e	8E
16aa	16aa	.	.
16bb	16bb	8B	8BB
16dd	16dd	.	.
=71	=71	=71	=71
16ee	16ee	4c	4C
16dd	16dd	.	.
16ee	16ee	.	.
16aa	16aa	.	.
16ccc	16ccc	8r	8r
16bb	16bb	.	.
16aa	16aa	8c#	8C#
16gg	16gg	.	.
=72	=72	=72	=72
16ff#	16ff#	8d	8D
16ee	16ee	.	.
16ff#	16ff#	8dd	8d
16dd	16dd	.	.
16gg	16gg	8b	8B
16dd	16dd	.	.
16cc	16cc	8g	8G
16b	16b	.	.
=73	=73	=73	=73
16a	16a	4cc	4c
16g	16g	.	.
16a	16a	.	.
16ee	16ee	.	.
16dd	16dd	8r	8r
16cc	16cc	.	.
16b	16b	8dd	8d
16a	16a	.	.
=74	=74	=74	=74
16b	16b	4g	4G
16a	16a	.	.
16b	16b	.	.
16cc	16cc	.	.
16dd	16dd	8r	8r
16b	16b	.	.
16a	16a	8B	8BB
16g	16g	.	.
=75	=75	=75	=75
16a	16a	8c	8C
16g	16g	.	.
16a	16a	8cc	8c
16cc	16cc	.	.
16b	16b	8dd	8d
16a	16a	.	.
16b	16b	8d	8D
16dd	16dd	.	.
=76	=76	=76	=76
16cc	16cc	4e	4E
16b	16b	.	.
16cc	16cc	.	.
16ee	16ee	.	.
16dd	16dd	8r	8r
16cc	16cc	.	.
16b	16b	8f#	8F#
16a	16a	.	.
=77	=77	=77	=77
16b	16b	8g	8G
16dd	16dd	.	.
16e	16e	8c	8C
16cc	16cc	.	.
16b	16b	8d	8D
16g	16g	.	.
16A	16A	8D	8DD
16f#	16f#	.	.
=78	=78	=78	=78
8G	8G	8G	8GG
4.r	4.r	4.r	4.r
==	==	==	==
*-	*-	*-	*-
!!!RWG1: This file contains only pitch and duration data.
!!!RWG2: Transposing instruments are not transposed.
!!!RWG3: Spines may have incompatible meters.
!!!RWG4: Durations of rests and tied notes may be interpreted.
!!!RWG: Key is interpreted using the Humdrum key tool.
!!!AFT: stage1 
!!!END: 2000/12/13
!!format changes:
!!content changes:
!!public access: complete
!!!KEY: 2394877184
!!!EMD: Converted from MuseData to Humdrum Dec 16, 2000, by Andreas Kornstaedt using muse2kern.
